;FLAVOR:Marlin
;TIME:15217
;Filament used: 7.78226m
;Layer height: 0.13125
;MINX:26.674
;MINY:2.924
;MINZ:0.306
;MAXX:93.325
;MAXY:117.075
;MAXZ:5.505
;Generated with Cura_SteamEngine 4.9.1
M140 S65
M105
M190 S65
M104 S205
M105
M109 S205
M82 ;absolute extrusion mode
G21;(metric values)
G90;(absolute positioning)
M82;(set extruder to absolute mode)
M107;(start with the fan off)
G28;(Home the printer)
G92 E0;(Reset the extruder to 0)
G0 Z5 E5 F500;(Move up and prime the nozzle)
G0 X-1 Z0;(Move outside the printable area)
G1 Y60 E8 F500;(Draw a priming/wiping line to the rear)
G1 X-1;(Move a little closer to the print area)
G1 Y10 E16 F500;(draw more priming/wiping)
G1 E15 F250;(Small retract)
G92 E0;(Zero the extruder)
G92 E0
G92 E0
G1 F2400 E-2.5
;LAYER_COUNT:35
;LAYER:-6
M107
G0 F7200 X27.39 Y9.56 Z0.306
;TYPE:SUPPORT-INTERFACE
G1 F2400 E0
G1 F1125 X27.574 Y9.034 E0.05672
G1 X27.782 Y8.575 E0.108
G1 X28.144 Y7.875 E0.18821
G1 X28.423 Y7.398 E0.24445
G1 X28.757 Y6.935 E0.30255
G1 X29.28 Y6.291 E0.38699
G1 X29.625 Y5.912 E0.43915
G1 X30.037 Y5.533 E0.49613
G1 X30.7 Y4.995 E0.58302
G1 X31.124 Y4.689 E0.63624
G1 X31.596 Y4.409 E0.6921
G1 X32.304 Y4.043 E0.77321
G1 X32.827 Y3.806 E0.83165
G1 X33.258 Y3.654 E0.87817
G1 X33.98 Y3.447 E0.95461
G1 X34.199 Y3.395 E0.97752
G1 X34.876 Y3.267 E1.04764
G1 X35.109 Y3.235 E1.07158
G1 X35.85 Y3.169 E1.14729
G1 X36.322 Y3.15 E1.19537
G1 X83.678 Y3.15 E6.01507
G1 X84.222 Y3.174 E6.07049
G1 X84.891 Y3.235 E6.13886
G1 X85.124 Y3.267 E6.1628
G1 X85.801 Y3.395 E6.23292
G1 X86.02 Y3.447 E6.25583
G1 X86.678 Y3.636 E6.32551
G1 X87.216 Y3.824 E6.38351
G1 X87.675 Y4.032 E6.4348
G1 X88.368 Y4.39 E6.51418
G1 X88.858 Y4.677 E6.57198
G1 X89.315 Y5.007 E6.62935
G1 X89.959 Y5.53 E6.71379
G1 X90.338 Y5.875 E6.76595
G1 X90.717 Y6.287 E6.82292
G1 X91.244 Y6.935 E6.90793
G1 X91.561 Y7.374 E6.96304
G1 X91.841 Y7.846 E7.01889
G1 X92.207 Y8.554 E7.10001
G1 X92.444 Y9.077 E7.15845
G1 X92.589 Y9.489 E7.2029
G1 X92.803 Y10.23 E7.2814
G1 X92.857 Y10.457 E7.30515
G1 X92.984 Y11.133 E7.37515
G1 X93.016 Y11.364 E7.39889
G1 X93.081 Y12.1 E7.47409
G1 X93.1 Y12.562 E7.52115
G1 X93.1 Y107.428 E17.17623
G1 X93.077 Y107.965 E17.23093
G1 X93.016 Y108.636 E17.29951
G1 X92.984 Y108.867 E17.32324
G1 X92.857 Y109.543 E17.39325
G1 X92.803 Y109.77 E17.41699
G1 X92.614 Y110.428 E17.48667
G1 X92.426 Y110.966 E17.54467
G1 X92.222 Y111.419 E17.59524
G1 X91.858 Y112.122 E17.67581
G1 X91.577 Y112.602 E17.73242
G1 X91.254 Y113.051 E17.78871
G1 X90.72 Y113.709 E17.87496
G1 X90.375 Y114.088 E17.92712
G1 X89.963 Y114.467 E17.98409
G1 X89.315 Y114.994 E18.0691
G1 X88.876 Y115.311 E18.12421
G1 X88.404 Y115.591 E18.18006
G1 X87.696 Y115.957 E18.26118
G1 X87.175 Y116.193 E18.31939
G1 X86.742 Y116.346 E18.36613
G1 X86.02 Y116.553 E18.44257
G1 X85.801 Y116.605 E18.46548
G1 X85.124 Y116.733 E18.53561
G1 X84.891 Y116.765 E18.55954
G1 X84.15 Y116.831 E18.63526
G1 X83.678 Y116.85 E18.68333
G1 X36.322 Y116.85 E23.50304
G1 X35.778 Y116.826 E23.55846
G1 X35.109 Y116.765 E23.62683
G1 X34.876 Y116.733 E23.65077
G1 X34.199 Y116.605 E23.72089
G1 X33.98 Y116.553 E23.7438
G1 X33.323 Y116.364 E23.81338
G1 X32.784 Y116.176 E23.87148
G1 X32.325 Y115.968 E23.92276
G1 X31.628 Y115.608 E24.0026
G1 X31.14 Y115.322 E24.06017
G1 X30.685 Y114.993 E24.11732
G1 X30.041 Y114.47 E24.20175
G1 X29.66 Y114.123 E24.2542
G1 X29.277 Y113.706 E24.31183
G1 X28.745 Y113.05 E24.39779
G1 X28.433 Y112.617 E24.45211
G1 X28.157 Y112.15 E24.50732
G1 X27.789 Y111.438 E24.58889
G1 X27.556 Y110.923 E24.64642
G1 X27.405 Y110.495 E24.69261
G1 X27.197 Y109.77 E24.76937
G1 X27.143 Y109.543 E24.79312
G1 X27.016 Y108.867 E24.86312
G1 X26.984 Y108.636 E24.88686
G1 X26.923 Y107.965 E24.95543
G1 X26.9 Y107.438 E25.00912
G1 X26.9 Y12.572 E34.6642
G1 X26.923 Y12.035 E34.71891
G1 X26.984 Y11.364 E34.78748
G1 X27.016 Y11.133 E34.81121
G1 X27.143 Y10.457 E34.88122
G1 X27.197 Y10.23 E34.90497
G1 X27.318 Y9.81 E34.94945
G0 F1012.5 X27.39 Y9.56
G0 F7200 X27.2 Y10.219
G1 F1125 X27.2 Y109.78 E45.08237
G0 F7200 X28.8 Y113.117
G1 F1125 X28.8 Y6.882 E55.89455
G0 F7200 X30.4 Y5.238
G1 F1125 X30.4 Y114.761 E67.04136
G0 F7200 X32 Y115.8
G1 F1125 X32 Y4.2 E78.39956
G0 F7200 X33.6 Y3.555
G1 F1125 X33.6 Y116.443 E89.88886
G0 F7200 X35.2 Y116.773
G1 F1125 X35.2 Y3.226 E101.44522
G0 F7200 X36.8 Y3.15
G1 F1125 X36.8 Y116.85 E113.01715
G0 F7200 X38.4 Y116.85
G1 F1125 X38.4 Y3.15 E124.58908
G0 F7200 X40 Y3.15
G1 F1125 X40 Y116.85 E136.16101
G0 F7200 X41.6 Y116.85
G1 F1125 X41.6 Y3.15 E147.73295
G0 F7200 X43.2 Y3.15
G1 F1125 X43.2 Y116.85 E159.30488
G0 F7200 X44.8 Y116.85
G1 F1125 X44.8 Y3.15 E170.87681
G0 F7200 X46.4 Y3.15
G1 F1125 X46.4 Y116.85 E182.44875
G0 F7200 X48 Y116.85
G1 F1125 X48 Y3.15 E194.02068
G0 F7200 X49.6 Y3.15
G1 F1125 X49.6 Y116.85 E205.59261
G0 F7200 X51.2 Y116.85
G1 F1125 X51.2 Y3.15 E217.16454
G0 F7200 X52.8 Y3.15
G1 F1125 X52.8 Y116.85 E228.73648
G0 F7200 X54.4 Y116.85
G1 F1125 X54.4 Y3.15 E240.30841
G0 F7200 X56 Y3.15
G1 F1125 X56 Y116.85 E251.88034
G0 F7200 X57.6 Y116.85
G1 F1125 X57.6 Y3.15 E263.45227
G0 F7200 X59.2 Y3.15
G1 F1125 X59.2 Y116.85 E275.02421
G0 F7200 X60.8 Y116.85
G1 F1125 X60.8 Y3.15 E286.59614
G0 F7200 X62.4 Y3.15
G1 F1125 X62.4 Y116.85 E298.16807
G0 F7200 X64 Y116.85
G1 F1125 X64 Y3.15 E309.74
G0 F7200 X65.6 Y3.15
G1 F1125 X65.6 Y116.85 E321.31194
G0 F7200 X67.2 Y116.85
G1 F1125 X67.2 Y3.15 E332.88387
G0 F7200 X68.8 Y3.15
G1 F1125 X68.8 Y116.85 E344.4558
G0 F7200 X70.4 Y116.85
G1 F1125 X70.4 Y3.15 E356.02774
G0 F7200 X72 Y3.15
G1 F1125 X72 Y116.85 E367.59967
G0 F7200 X73.6 Y116.85
G1 F1125 X73.6 Y3.15 E379.1716
G0 F7200 X75.2 Y3.15
G1 F1125 X75.2 Y116.85 E390.74353
G0 F7200 X76.8 Y116.85
G1 F1125 X76.8 Y3.15 E402.31547
G0 F7200 X78.4 Y3.15
G1 F1125 X78.4 Y116.85 E413.8874
G0 F7200 X80 Y116.85
G1 F1125 X80 Y3.15 E425.45933
G0 F7200 X81.6 Y3.15
G1 F1125 X81.6 Y116.85 E437.03126
G0 F7200 X83.2 Y116.85
G1 F1125 X83.2 Y3.15 E448.6032
G0 F7200 X84.8 Y3.227
G1 F1125 X84.8 Y116.774 E460.15956
G0 F7200 X86.4 Y116.445
G1 F1125 X86.4 Y3.557 E471.64885
G0 F7200 X88 Y4.2
G1 F1125 X88 Y115.8 E483.00705
G0 F7200 X89.6 Y114.763
G1 F1125 X89.6 Y5.239 E494.15397
G0 F7200 X91.2 Y6.881
G1 F1125 X91.2 Y113.118 E504.96635
G0 F7200 X92.8 Y109.781
M104 S200
G1 F1125 X92.8 Y10.22 E515.09927
G0 F600 X92.8 Y10.22 Z0.525
G0 F7200 X91.829 Y7.72
;TIME_ELAPSED:300.205476
;LAYER:-5
M140 S60
;TYPE:SUPPORT
G1 F1125 X91.744 Y7.57 E515.11026
G1 X91.611 Y7.36 E515.1261
G1 X91.358 Y7.005 E515.15388
G1 X91.281 Y6.903 E515.16203
G1 X90.755 Y6.255 E515.21522
G1 X90.687 Y6.175 E515.22191
G1 X90.558 Y6.029 E515.23433
G1 X90.373 Y5.839 E515.25123
G1 X90.069 Y5.559 E515.27757
G1 X89.99 Y5.489 E515.2843
G1 X89.345 Y4.968 E515.33715
G1 X89.241 Y4.886 E515.34559
G1 X89.083 Y4.766 E515.35823
G1 X88.888 Y4.636 E515.37317
G1 X88.546 Y4.432 E515.39855
G1 X88.4 Y4.35 E515.40922
G1 X88.307 Y4.302 E515.41589
G1 X91.942 Y7.938 E515.74358
G1 X92.254 Y8.539 E515.78674
G1 X92.316 Y8.664 E515.79563
G1 X92.482 Y9.041 E515.82188
G1 X92.574 Y9.281 E515.83826
G1 X92.636 Y9.473 E515.85112
G1 X92.811 Y10.079 E515.89132
G1 X86.17 Y3.438 E516.48991
G1 X86.018 Y3.394 E516.49999
G1 X85.82 Y3.348 E516.51295
G1 X85.141 Y3.22 E516.55699
G1 X84.9 Y3.185 E516.57251
G1 X84.618 Y3.16 E516.59055
G1 X93.088 Y11.629 E517.35395
G1 X93.13 Y12.097 E517.38389
G1 X93.149 Y12.561 E517.41349
G1 X93.15 Y12.964 E517.43918
G1 X83.286 Y3.1 E518.32826
G1 X82.013 Y3.1 E518.4094
G1 X93.15 Y14.236 E519.41318
G1 X93.15 Y15.509 E519.49432
G1 X80.74 Y3.1 E520.61284
G1 X79.468 Y3.1 E520.69391
G1 X93.15 Y16.782 E521.92713
G1 X93.15 Y18.055 E522.00827
G1 X78.195 Y3.1 E523.35623
G1 X76.922 Y3.1 E523.43736
G1 X93.15 Y19.328 E524.90007
G1 X93.15 Y20.6 E524.98114
G1 X75.649 Y3.1 E526.55853
G1 X74.377 Y3.1 E526.63961
G1 X93.15 Y21.873 E528.3317
G1 X93.15 Y23.146 E528.41284
G1 X73.104 Y3.1 E530.21967
G1 X71.831 Y3.1 E530.30081
G1 X93.15 Y24.419 E532.22238
G1 X93.15 Y25.692 E532.30352
G1 X70.558 Y3.1 E534.33984
G1 X69.285 Y3.1 E534.42097
G1 X93.15 Y26.964 E536.57199
G1 X93.15 Y28.237 E536.65312
G1 X68.013 Y3.1 E538.91883
G1 X66.74 Y3.1 E538.99997
G1 X93.15 Y29.51 E541.38042
G1 X93.15 Y30.783 E541.46155
G1 X65.467 Y3.1 E543.95675
G1 X64.194 Y3.1 E544.03788
G1 X93.15 Y32.055 E546.64777
G1 X93.15 Y33.328 E546.72891
G1 X62.921 Y3.1 E549.45354
G1 X61.649 Y3.1 E549.53461
G1 X93.15 Y34.601 E552.37394
G1 X93.15 Y35.874 E552.45507
G1 X60.376 Y3.1 E555.40914
G1 X59.103 Y3.1 E555.49027
G1 X93.15 Y37.147 E558.55909
G1 X93.15 Y38.419 E558.64016
G1 X57.83 Y3.1 E561.82366
G1 X56.557 Y3.1 E561.9048
G1 X93.15 Y39.692 E565.20304
G1 X93.15 Y40.965 E565.28418
G1 X55.285 Y3.1 E568.69712
G1 X54.012 Y3.1 E568.77826
G1 X93.15 Y42.238 E572.30594
G1 X93.15 Y43.511 E572.38708
G1 X52.739 Y3.1 E576.0295
G1 X51.466 Y3.1 E576.11064
G1 X93.15 Y44.783 E579.86776
G1 X93.15 Y46.056 E579.94889
G1 X50.193 Y3.1 E583.82076
G1 X48.921 Y3.1 E583.90183
G1 X93.15 Y47.329 E587.88839
G1 X93.15 Y48.602 E587.96952
G1 X47.648 Y3.1 E592.07082
G1 X46.375 Y3.1 E592.15196
G1 X93.15 Y49.875 E596.368
G1 X93.15 Y51.147 E596.44907
G1 X45.102 Y3.1 E600.77981
G1 X43.83 Y3.1 E600.86088
G1 X93.15 Y52.42 E605.30631
G1 X93.15 Y53.693 E605.38745
G1 X42.557 Y3.1 E609.94762
G1 X41.284 Y3.1 E610.02876
G1 X93.15 Y54.966 E614.70368
G1 X93.15 Y56.239 E614.78481
G1 X40.011 Y3.1 E619.57447
G1 X38.738 Y3.1 E619.6556
G1 X93.15 Y57.511 E624.55996
G1 X93.15 Y58.784 E624.64109
G1 X37.466 Y3.1 E629.66014
G1 X36.319 Y3.099 E629.73325
G1 X36.209 Y3.102 E629.74026
G1 X36.196 Y3.103 E629.74109
G1 X93.15 Y60.057 E634.87461
G1 X93.15 Y61.33 E634.95575
G1 X35.018 Y3.198 E640.19545
G1 X34.857 Y3.22 E640.2058
G1 X34.178 Y3.348 E640.24984
G1 X33.979 Y3.395 E640.26287
G1 X33.951 Y3.404 E640.26475
G1 X93.15 Y62.602 E645.60058
G1 X93.15 Y63.875 E645.68171
G1 X32.971 Y3.697 E651.10587
G1 X32.79 Y3.766 E651.11822
G1 X32.42 Y3.93 E651.14401
G1 X32.287 Y3.995 E651.15345
G1 X32.096 Y4.094 E651.16716
G1 X93.15 Y65.148 E656.67023
G1 X93.15 Y66.421 E656.75137
G1 X31.266 Y4.538 E662.32921
G1 X31.11 Y4.637 E662.34098
G1 X30.754 Y4.889 E662.36878
G1 X30.667 Y4.954 E662.3757
G1 X30.526 Y5.07 E662.38734
G1 X93.15 Y67.694 E668.03192
G1 X93.15 Y68.966 E668.11299
G1 X29.83 Y5.646 E673.82031
G1 X29.778 Y5.691 E673.8247
G1 X29.589 Y5.876 E673.84155
G1 X29.309 Y6.18 E673.86789
G1 X29.239 Y6.258 E673.87457
G1 X29.207 Y6.297 E673.87779
G1 X93.15 Y70.239 E679.64122
G1 X93.15 Y71.512 E679.72235
G1 X28.639 Y7.002 E685.53697
G1 X28.636 Y7.007 E685.53734
G1 X28.521 Y7.159 E685.54949
G1 X28.389 Y7.356 E685.56461
G1 X28.175 Y7.713 E685.59113
G1 X28.14 Y7.776 E685.59573
G1 X93.15 Y72.785 E691.45533
G1 X93.15 Y74.058 E691.53646
G1 X27.705 Y8.613 E697.43532
G1 X27.622 Y8.786 E697.44755
G1 X27.526 Y9.017 E697.46349
G1 X27.39 Y9.397 E697.48921
G1 X27.347 Y9.528 E697.498
G1 X93.15 Y75.33 E703.42908
G1 X93.15 Y76.603 E703.51021
G1 X27.077 Y10.53 E709.46567
G1 X26.969 Y11.107 E709.50308
G1 X26.934 Y11.358 E709.51924
G1 X26.908 Y11.634 E709.5369
G1 X93.15 Y77.876 E715.5076
G1 X93.15 Y79.149 E715.58873
G1 X26.848 Y12.848 E721.56478
G1 X26.848 Y14.12 E721.64585
G1 X93.15 Y80.422 E727.62195
G1 X93.15 Y81.694 E727.70302
G1 X26.848 Y15.393 E733.67908
G1 X26.848 Y16.666 E733.76021
G1 X93.15 Y82.967 E739.73627
G1 X93.15 Y84.24 E739.8174
G1 X26.848 Y17.939 E745.79346
G1 X26.848 Y19.212 E745.87459
G1 X93.15 Y85.513 E751.85064
G1 X93.15 Y86.786 E751.93178
G1 X26.848 Y20.484 E757.90788
G1 X26.848 Y21.757 E757.98901
G1 X93.15 Y88.058 E763.96507
G1 X93.15 Y89.331 E764.0462
G1 X26.848 Y23.03 E770.02226
G1 X26.848 Y24.303 E770.10339
G1 X93.15 Y90.604 E776.07944
G1 X93.15 Y91.877 E776.16058
G1 X26.848 Y25.576 E782.13663
G1 X26.848 Y26.848 E782.2177
G1 X93.15 Y93.15 E788.1938
G1 X93.15 Y94.422 E788.27487
G1 X26.848 Y28.121 E794.25093
G1 X26.848 Y29.394 E794.33206
G1 X93.15 Y95.695 E800.30812
G1 X93.15 Y96.968 E800.38925
G1 X26.848 Y30.667 E806.3653
G1 X26.848 Y31.94 E806.44644
G1 X93.15 Y98.241 E812.42249
G1 X93.15 Y99.513 E812.50356
G1 X26.848 Y33.212 E818.47962
G1 X26.848 Y34.485 E818.56075
G1 X93.15 Y100.786 E824.53681
G1 X93.15 Y102.059 E824.61794
G1 X26.848 Y35.758 E830.59399
G1 X26.848 Y37.031 E830.67513
G1 X93.15 Y103.332 E836.65118
G1 X93.15 Y104.605 E836.73232
G1 X26.848 Y38.303 E842.70842
G1 X26.848 Y39.576 E842.78955
G1 X93.15 Y105.877 E848.7656
G1 X93.15 Y107.15 E848.84674
G1 X26.848 Y40.849 E854.82279
G1 X26.848 Y42.122 E854.90393
G1 X93.091 Y108.364 E860.87466
G1 X93.065 Y108.641 E860.8924
G1 X93.029 Y108.891 E860.90849
G1 X92.922 Y109.468 E860.9459
G1 X26.848 Y43.395 E866.9014
G1 X26.848 Y44.667 E866.98247
G1 X92.652 Y110.471 E872.91368
G1 X92.609 Y110.602 E872.92247
G1 X92.474 Y110.98 E872.94805
G1 X92.378 Y111.21 E872.96394
G1 X92.293 Y111.385 E872.97634
G1 X26.848 Y45.94 E878.87519
G1 X26.848 Y47.213 E878.95632
G1 X91.858 Y112.223 E884.81597
G1 X91.824 Y112.286 E884.82053
G1 X91.612 Y112.637 E884.84667
G1 X91.482 Y112.833 E884.86166
G1 X91.363 Y112.992 E884.87432
G1 X91.359 Y112.997 E884.87472
G1 X26.848 Y48.486 E890.68939
G1 X26.848 Y49.759 E890.77053
G1 X90.79 Y113.7 E896.53386
G1 X90.758 Y113.739 E896.53708
G1 X90.689 Y113.819 E896.54381
G1 X90.409 Y114.123 E896.57015
G1 X90.221 Y114.308 E896.58696
G1 X90.169 Y114.352 E896.5913
G1 X26.848 Y51.031 E902.29871
G1 X26.848 Y52.304 E902.37985
G1 X89.472 Y114.928 E908.02443
G1 X89.35 Y115.027 E908.03445
G1 X89.241 Y115.112 E908.04326
G1 X88.891 Y115.358 E908.07052
G1 X88.732 Y115.46 E908.08256
G1 X26.848 Y53.577 E913.6604
G1 X26.848 Y54.85 E913.74154
G1 X87.902 Y115.903 E919.24456
G1 X87.71 Y116.003 E919.25836
G1 X87.578 Y116.069 E919.26777
G1 X87.208 Y116.232 E919.29354
G1 X87.027 Y116.302 E919.3059
G1 X26.848 Y56.123 E924.73011
G1 X26.848 Y57.395 E924.81118
G1 X86.048 Y116.595 E930.14714
G1 X86.02 Y116.604 E930.14902
G1 X85.821 Y116.651 E930.16205
G1 X85.142 Y116.779 E930.20609
G1 X84.981 Y116.801 E930.21645
G1 X26.848 Y58.668 E935.45624
G1 X26.848 Y59.941 E935.53737
G1 X83.803 Y116.896 E940.67098
G1 X83.79 Y116.896 E940.67181
G1 X83.679 Y116.898 E940.67889
G1 X82.533 Y116.898 E940.75193
G1 X26.848 Y61.214 E945.77102
G1 X26.848 Y62.487 E945.85216
G1 X81.26 Y116.898 E950.75651
G1 X79.987 Y116.898 E950.83765
G1 X26.848 Y63.759 E955.6273
G1 X26.848 Y65.032 E955.70844
G1 X78.715 Y116.898 E960.3834
G1 X77.442 Y116.898 E960.46454
G1 X26.848 Y66.305 E965.02476
G1 X26.848 Y67.578 E965.10589
G1 X76.169 Y116.898 E969.55137
G1 X74.896 Y116.898 E969.6325
G1 X26.848 Y68.85 E973.96329
G1 X26.848 Y70.123 E974.04442
G1 X73.623 Y116.898 E978.26047
G1 X72.351 Y116.898 E978.34154
G1 X26.848 Y71.396 E982.44288
G1 X26.848 Y72.669 E982.52402
G1 X71.078 Y116.898 E986.51062
G1 X69.805 Y116.898 E986.59176
G1 X26.848 Y73.942 E990.46362
G1 X26.848 Y75.214 E990.54469
G1 X68.532 Y116.898 E994.30186
G1 X67.259 Y116.898 E994.38299
G1 X26.848 Y76.487 E998.02542
G1 X26.848 Y77.76 E998.10655
G1 X65.987 Y116.898 E1001.63428
G1 X64.714 Y116.898 E1001.71542
G1 X26.848 Y79.033 E1005.12841
G1 X26.848 Y80.306 E1005.20954
G1 X63.441 Y116.898 E1008.50779
G1 X62.168 Y116.898 E1008.58892
G1 X26.848 Y81.578 E1011.77247
G1 X26.848 Y82.851 E1011.85361
G1 X60.896 Y116.898 E1014.92246
G1 X59.623 Y116.898 E1015.0036
G1 X26.848 Y84.124 E1017.95771
G1 X26.848 Y85.397 E1018.03885
G1 X58.35 Y116.898 E1020.87822
G1 X57.077 Y116.898 E1020.95935
G1 X26.848 Y86.67 E1023.68398
G1 X26.848 Y87.942 E1023.76505
G1 X55.804 Y116.898 E1026.37499
G1 X54.532 Y116.898 E1026.45606
G1 X26.848 Y89.215 E1028.9513
G1 X26.848 Y90.488 E1029.03243
G1 X53.259 Y116.898 E1031.41293
G1 X51.986 Y116.898 E1031.49407
G1 X26.848 Y91.761 E1033.75982
G1 X26.848 Y93.034 E1033.84096
G1 X50.713 Y116.898 E1035.99197
G1 X49.44 Y116.898 E1036.07311
G1 X26.848 Y94.306 E1038.10943
G1 X26.848 Y95.579 E1038.19056
G1 X48.168 Y116.898 E1040.11218
G1 X46.895 Y116.898 E1040.19332
G1 X26.848 Y96.852 E1042.0002
G1 X26.848 Y98.125 E1042.08133
G1 X45.622 Y116.898 E1043.77347
G1 X44.349 Y116.898 E1043.85461
G1 X26.848 Y99.398 E1045.43201
G1 X26.848 Y100.67 E1045.51308
G1 X43.076 Y116.898 E1046.97578
G1 X41.804 Y116.898 E1047.05685
G1 X26.848 Y101.943 E1048.40486
G1 X26.848 Y103.216 E1048.48599
G1 X40.531 Y116.898 E1049.71926
